X:52
T: Róisin dubh, S. 132
N: I0551
O: Irland
S: O'SULLIVAN, Donal: Song of the Irish]
R: Heimatlied]
M: 3/4
L: 1/16
K: C
G2E2 | G4C4E2G2 | dcedc2A2G2E2 | D2C2E4D4 | C8
c2d2 | e4f4e2c2 | e4d2c2B2G2 | d2c2e4d4 | c8
c2d2 | e4f4e2c2 | e4d2c2B2G2 | d2c2e4d4 | c4A4
G2E2 | G4C4E2G2 | dcedc2A2G2E2 | D2C2E4D4 | C8

